X: 5191
T: Brit In The Liffey
R: jig
M: 6/8
K: Bminor
|:f2 B BAF|B3 dBf|ecA A3|cAc efg|
f2 B BAF|B3 dBe|(3fga f bfe|dBA B3:|
|:B3 dfe|dcB AFG|A3 GAF|AEA FAD|
B3 dfe|dcd ede|(3fga f bfe|dBA B3:|

